SVG_Azure_All/Apache Spark Configuration.svg

<?xml version="1.0" encoding="UTF-8" standalone="no"?>
<!-- Generated by Microsoft Visio, SVG Export Apache Spark Configuration.svg Page-1 -->

<svg
   xmlns:dc="http://purl.org/dc/elements/1.1/"
   xmlns:cc="http://creativecommons.org/ns#"
   xmlns:rdf="http://www.w3.org/1999/02/22-rdf-syntax-ns#"
   xmlns:svg="http://www.w3.org/2000/svg"
   xmlns="http://www.w3.org/2000/svg"
   xmlns:sodipodi="http://sodipodi.sourceforge.net/DTD/sodipodi-0.dtd"
   xmlns:inkscape="http://www.inkscape.org/namespaces/inkscape"
   width="0.62985766in"
   height="0.78735691in"
   viewBox="0 0 45.349495 56.690008"
   xml:space="preserve"
   class="st6"
   version="1.1"
   id="svg47"
   sodipodi:docname="Apache Spark Configuration.svg"
   style="font-size:12px;overflow:visible;color-interpolation-filters:sRGB;fill:none;fill-rule:evenodd;stroke-linecap:square;stroke-miterlimit:3"
   inkscape:version="0.92.5 (2060ec1f9f, 2020-04-08)"><metadata
   id="metadata51"><rdf:RDF><cc:Work
       rdf:about=""><dc:format>image/svg+xml</dc:format><dc:type
         rdf:resource="http://purl.org/dc/dcmitype/StillImage" /></cc:Work></rdf:RDF></metadata><sodipodi:namedview
   pagecolor="#ffffff"
   bordercolor="#666666"
   borderopacity="1"
   objecttolerance="10"
   gridtolerance="10"
   guidetolerance="10"
   inkscape:pageopacity="0"
   inkscape:pageshadow="2"
   inkscape:window-width="640"
   inkscape:window-height="480"
   id="namedview49"
   showgrid="false"
   inkscape:zoom="1.4193119"
   inkscape:cx="30.235832"
   inkscape:cy="37.786198"
   inkscape:window-x="0"
   inkscape:window-y="0"
   inkscape:window-maximized="0"
   inkscape:current-layer="svg47" />
	<style
   type="text/css"
   id="style2">
	<![CDATA[
		.st1 {fill:#ffffff;stroke:none;stroke-linecap:butt;stroke-width:34}
		.st2 {fill:url(#grad0-8)}
		.st3 {stroke:none;stroke-linecap:butt;stroke-width:34}
		.st4 {fill:#0078d4;stroke:none;stroke-linecap:butt;stroke-width:34}
		.st5 {fill:url(#grad0-15);stroke:none;stroke-linecap:butt;stroke-width:34}
		.st6 {fill:none;fill-rule:evenodd;font-size:12px;overflow:visible;stroke-linecap:square;stroke-miterlimit:3}
	]]>
	</style>

	<defs
   id="Patterns_And_Gradients">
		<linearGradient
   id="grad0-8"
   x1="0"
   y1="60.83759"
   x2="50.703963"
   y2="60.83759"
   gradientTransform="scale(0.89440742,1.1180587)"
   gradientUnits="userSpaceOnUse">
			<stop
   offset="0"
   stop-color="#0078d4"
   stop-opacity="1"
   id="stop4" />
			<stop
   offset="0.82"
   stop-color="#5ea0ef"
   stop-opacity="1"
   id="stop6" />
		</linearGradient>
		<linearGradient
   id="grad0-15"
   x1="-1.3435804e-15"
   y1="99.41582"
   x2="24.244133"
   y2="99.41582"
   gradientTransform="scale(0.99158009,1.0084914)"
   gradientUnits="userSpaceOnUse">
			<stop
   offset="0"
   stop-color="#0078d4"
   stop-opacity="1"
   id="stop9" />
			<stop
   offset="0.815"
   stop-color="#5ea0ef"
   stop-opacity="1"
   id="stop11" />
		</linearGradient>
	</defs>
	<g
   id="g45"
   transform="translate(-34.000633,-34.004297)">
		<title
   id="title15">Page-1</title>
		<g
   id="group10344-1"
   transform="translate(34,-34.0157)">
			<title
   id="title17">Apache Spark Configuration</title>
			<g
   id="group10345-2">
				<title
   id="title19">Sheet.10345</title>
				<g
   id="shape10346-3"
   transform="translate(0.383276,-0.422596)">
					<title
   id="title21">Sheet.10346</title>
					<path
   d="M 25.55,68.86 H 1.82 A 1.88444,1.91794 -180 0 0 0,70.78 v 52.01 a 1.88444,1.91794 -180 0 0 1.85,1.92 h 41.04 a 1.88444,1.91794 -180 0 0 1.83,-1.92 V 88.37 A 1.88444,1.91794 -180 0 0 42.86,86.45 H 29.26 A 1.8525,1.88543 0 0 1 27.4,84.56 V 70.78 a 1.91638,1.95044 -180 0 0 -1.85,-1.92 z"
   class="st1"
   id="path23"
   inkscape:connector-curvature="0"
   style="fill:#ffffff;stroke:none;stroke-width:34;stroke-linecap:butt" />
				</g>
				<g
   id="shape10347-5">
					<title
   id="title26">Sheet.10347</title>
					<path
   d="m 25.04,70.88 v 13 a 4.72707,4.8111 -180 0 0 4.7,4.81 h 12.93 v 33.16 H 2.81 V 70.88 h 22.36 z m 0.9,-2.86 H 1.92 A 1.91638,1.95044 -180 0 0 0,69.97 v 52.79 a 1.91638,1.95044 -180 0 0 1.92,1.95 h 41.52 a 1.91638,1.95044 -180 0 0 1.91,-1.95 V 87.81 A 1.88444,1.91794 -180 0 0 43.47,85.89 H 29.74 A 1.88444,1.91794 0 0 1 27.85,83.98 V 69.97 a 1.91638,1.95044 -180 0 0 -1.91,-1.95 z"
   class="st2"
   id="path28"
   inkscape:connector-curvature="0"
   style="fill:url(#grad0-8)" />
					<path
   d="m 25.04,70.88 v 13 a 4.72707,4.8111 -180 0 0 4.7,4.81 h 12.93 v 33.16 H 2.81 V 70.88 h 22.36 m 0.77,-2.86 H 1.92 A 1.91638,1.95044 -180 0 0 0,69.97 v 52.79 a 1.91638,1.95044 -180 0 0 1.92,1.95 h 41.52 a 1.91638,1.95044 -180 0 0 1.91,-1.95 V 87.81 A 1.88444,1.91794 -180 0 0 43.47,85.89 H 29.74 A 1.88444,1.91794 0 0 1 27.85,83.98 V 69.97 a 1.91638,1.95044 -180 0 0 -1.91,-1.95"
   class="st3"
   id="path30"
   inkscape:connector-curvature="0"
   style="stroke:none;stroke-width:34;stroke-linecap:butt" />
				</g>
				<g
   id="shape10348-10"
   transform="translate(27.1807,-38.4238)">
					<title
   id="title33">Sheet.10348</title>
					<path
   d="M 17.57,124.71 0,106.86 v 14.53 a 3.19397,3.25074 -180 0 0 3.19,3.25 z"
   class="st4"
   id="path35"
   inkscape:connector-curvature="0"
   style="fill:#0078d4;stroke:none;stroke-width:34;stroke-linecap:butt" />
				</g>
				<g
   id="shape10349-12"
   transform="translate(10.7253,-9.35888)">
					<title
   id="title38">Sheet.10349</title>
					<path
   d="m 24.04,113.82 v -2.79 l -0.39,-0.15 -2.94,-0.97 -0.77,-1.91 1.49,-3.23 -1.92,-1.96 -0.38,0.2 -2.74,1.41 -1.87,-0.78 -1.2,-3.38 h -2.75 l -0.14,0.39 -0.96,2.99 -1.87,0.78 -3.13,-1.52 -1.92,1.95 0.19,0.39 1.4,2.79 -0.77,1.9 -3.37,1.23 v 2.79 l 0.38,0.15 2.94,0.97 0.77,1.91 -1.49,3.23 1.91,1.95 0.39,-0.19 2.74,-1.42 1.87,0.78 1.21,3.38 h 2.74 l 0.14,-0.39 0.96,-3 1.87,-0.78 3.17,1.52 1.92,-1.95 -0.19,-0.39 -1.39,-2.79 0.77,-1.9 z m -12.02,4.05 a 5.27643,5.37022 0 1 1 5.27,-5.37 5.27005,5.36372 0 0 1 -5.26,5.37 z"
   class="st5"
   id="path40"
   inkscape:connector-curvature="0"
   style="fill:url(#grad0-15);stroke:none;stroke-width:34;stroke-linecap:butt" />
				</g>
			</g>
		</g>
	</g>
</svg>

<?xml version="1.0" encoding="UTF-8" standalone="no"?>
<!DOCTYPE svg PUBLIC "-//W3C//DTD SVG 1.1//EN" "http://www.w3.org/Graphics/SVG/1.1/DTD/svg11.dtd">
<!-- Generated by Microsoft Visio, SVG Export Apache Spark Configuration.svg Page-1 -->
<svg xmlns="http://www.w3.org/2000/svg" xmlns:xlink="http://www.w3.org/1999/xlink" xmlns:ev="http://www.w3.org/2001/xml-events"
		width="1.57437in" height="1.73206in" viewBox="0 0 113.354 124.709" xml:space="preserve" color-interpolation-filters="sRGB"
		class="st6">
	<style type="text/css">
	<![CDATA[
		.st1 {fill:#ffffff;stroke:none;stroke-linecap:butt;stroke-width:34}
		.st2 {fill:url(#grad0-8)}
		.st3 {stroke:none;stroke-linecap:butt;stroke-width:34}
		.st4 {fill:#0078d4;stroke:none;stroke-linecap:butt;stroke-width:34}
		.st5 {fill:url(#grad0-15);stroke:none;stroke-linecap:butt;stroke-width:34}
		.st6 {fill:none;fill-rule:evenodd;font-size:12px;overflow:visible;stroke-linecap:square;stroke-miterlimit:3}
	]]>
	</style>

	<defs id="Patterns_And_Gradients">
		<linearGradient id="grad0-8" x1="0" y1="0" x2="1" y2="0" gradientTransform="rotate(-90 0.5 0.5)">
			<stop offset="0" stop-color="#0078d4" stop-opacity="1"/>
			<stop offset="0.82" stop-color="#5ea0ef" stop-opacity="1"/>
		</linearGradient>
		<linearGradient id="grad0-15" x1="0" y1="0" x2="1" y2="0" gradientTransform="rotate(-90 0.5 0.5)">
			<stop offset="0" stop-color="#0078d4" stop-opacity="1"/>
			<stop offset="0.815" stop-color="#5ea0ef" stop-opacity="1"/>
		</linearGradient>
	</defs>
	<g>
		<title>Page-1</title>
		<g id="group10113-1" transform="translate(34,-34.0157)">
			<title>Apache Spark Configuration</title>
			<g id="group10114-2">
				<title>Sheet.10114</title>
				<g id="shape10115-3" transform="translate(0.383276,-0.422596)">
					<title>Sheet.10115</title>
					<path d="M25.55 68.86 L1.82 68.86 A1.88444 1.91794 -180 0 0 0 70.78 L0 122.79 A1.88444 1.91794 -180 0 0 1.85
								 124.71 L42.89 124.71 A1.88444 1.91794 -180 0 0 44.72 122.79 L44.72 88.37 A1.88444 1.91794 -180 0
								 0 42.86 86.45 L29.26 86.45 A1.8525 1.88543 0 0 1 27.4 84.56 L27.4 70.78 A1.91638 1.95044 -180 0
								 0 25.55 68.86 Z" class="st1"/>
				</g>
				<g id="shape10116-5">
					<title>Sheet.10116</title>
					<path d="M25.04 70.88 L25.04 83.88 A4.72707 4.8111 -180 0 0 29.74 88.69 L42.67 88.69 L42.67 121.85 L2.81 121.85
								 L2.81 70.88 L25.17 70.88 L25.04 70.88 ZM25.94 68.02 L1.92 68.02 A1.91638 1.95044 -180 0 0 0 69.97
								 L0 122.76 A1.91638 1.95044 -180 0 0 1.92 124.71 L43.44 124.71 A1.91638 1.95044 -180 0 0 45.35 122.76
								 L45.35 87.81 A1.88444 1.91794 -180 0 0 43.47 85.89 L29.74 85.89 A1.88444 1.91794 0 0 1 27.85 83.98
								 L27.85 69.97 A1.91638 1.95044 -180 0 0 25.94 68.02 Z" class="st2"/>
					<path d="M25.04 70.88 L25.04 83.88 A4.72707 4.8111 -180 0 0 29.74 88.69 L42.67 88.69 L42.67 121.85 L2.81 121.85
								 L2.81 70.88 L25.17 70.88M25.94 68.02 L1.92 68.02 A1.91638 1.95044 -180 0 0 0 69.97 L0 122.76 A1.91638
								 1.95044 -180 0 0 1.92 124.71 L43.44 124.71 A1.91638 1.95044 -180 0 0 45.35 122.76 L45.35 87.81 A1.88444
								 1.91794 -180 0 0 43.47 85.89 L29.74 85.89 A1.88444 1.91794 0 0 1 27.85 83.98 L27.85 69.97 A1.91638
								 1.95044 -180 0 0 25.94 68.02" class="st3"/>
				</g>
				<g id="shape10117-10" transform="translate(27.1807,-38.4238)">
					<title>Sheet.10117</title>
					<path d="M17.57 124.71 L0 106.86 L0 121.39 A3.19397 3.25074 -180 0 0 3.19 124.64 L17.57 124.71 Z" class="st4"/>
				</g>
				<g id="shape10118-12" transform="translate(10.7253,-9.35888)">
					<title>Sheet.10118</title>
					<path d="M24.04 113.82 L24.04 111.03 L23.65 110.88 L20.71 109.91 L19.94 108 L21.43 104.77 L19.51 102.81 L19.13
								 103.01 L16.39 104.42 L14.52 103.64 L13.32 100.26 L10.57 100.26 L10.43 100.65 L9.47 103.64 L7.6 104.42
								 L4.47 102.9 L2.55 104.85 L2.74 105.24 L4.14 108.03 L3.37 109.93 L0 111.16 L0 113.95 L0.38 114.1
								 L3.32 115.07 L4.09 116.98 L2.6 120.21 L4.51 122.16 L4.9 121.97 L7.64 120.55 L9.51 121.33 L10.72
								 124.71 L13.46 124.71 L13.6 124.32 L14.56 121.32 L16.43 120.54 L19.6 122.06 L21.52 120.11 L21.33
								 119.72 L19.94 116.93 L20.71 115.03 L24.04 113.82 ZM12.02 117.87 A5.27643 5.37022 0 1 1 17.29 112.5
								 A5.27005 5.36372 0 0 1 12.03 117.87 L12.02 117.87 Z" class="st5"/>
				</g>
			</g>
		</g>
	</g>
</svg>
